_includes/icons/ios-smart-watch.svg

<svg fill="#666" height="50" viewBox="0 0 50 50" width="50" xmlns="http://www.w3.org/2000/svg"><path d="m25.0625 0c-2.5625 0-4.472656.0898438-5.90625.40625-.71875.160156-1.332031.386719-1.84375.75s-.917969.925781-1 1.5625c-.050781.378906-.058594.367188-.15625.65625-.097656.289063-.21875.753906-.375 1.6875-.457031 2.761719-1.851562 2.605469-3.125 3.96875-.046875.050781-.109375.070313-.15625.125-1.503906 1.09375-2.5 2.851563-2.5 4.84375v22c0 1.992188.996094 3.75 2.5 4.84375l.03125.03125c.042969.03125.082031.066406.125.09375 1.25 1.34375 2.605469 1.234375 3.125 4 .15625.839844.289063 1.261719.375 1.53125.085938.269531.097656.339844.15625.78125.078125.617188.472656 1.167969.96875 1.53125s1.078125.585938 1.78125.75c1.40625.328125 3.308594.4375 5.875.4375 2.5625 0 4.472656-.089844 5.90625-.40625.71875-.160156 1.332031-.386719 1.84375-.75s.917969-.925781 1-1.5625c.050781-.378906.058594-.367187.15625-.65625.097656-.289062.21875-.753906.375-1.6875.457031-2.761719 1.851563-2.605469 3.125-3.96875.042969-.027344.082031-.0625.125-.09375l.03125-.03125c1.503906-1.09375 2.5-2.851562 2.5-4.84375v-2c.550781 0 1-.449219 1-1v-6c0-.550781-.449219-1-1-1v-3c1.113281-.082031 2-1.023437 2-2.15625v-3.6875c0-1.132812-.886719-2.074219-2-2.15625v-1c0-1.992187-.996094-3.75-2.5-4.84375-.011719-.011719-.019531-.019531-.03125-.03125-.042969-.03125-.082031-.066406-.125-.09375-1.25-1.34375-2.605469-1.234375-3.125-4-.15625-.839844-.289062-1.261719-.375-1.53125-.085937-.269531-.097656-.339844-.15625-.78125-.078125-.617187-.472656-1.167969-.96875-1.53125s-1.078125-.585937-1.78125-.75c-1.40625-.328125-3.308594-.4375-5.875-.4375zm0 2c2.503906 0 4.34375.121094 5.4375.375.546875.128906.871094.289063 1.03125.40625.160156.117188.144531.140625.15625.21875.070313.535156.167969.835938.25 1.09375.082031.257813.167969.535156.3125 1.3125.207031 1.105469.613281 1.921875 1.0625 2.59375h-16.59375c.449219-.675781.847656-1.511719 1.03125-2.625.144531-.867187.238281-1.15625.3125-1.375s.183594-.496094.25-1c.011719-.085937-.011719-.097656.15625-.21875s.527344-.28125 1.09375-.40625c1.128906-.25 2.992188-.375 5.5-.375zm-9.0625 8h18c2.21875 0 4 1.78125 4 4v2.15625c-.332031.617188-.5625 1.507813-.5625 2.84375 0 1.332031.234375 2.222656.5625 2.84375v14.15625c0 2.21875-1.78125 4-4 4h-18c-2.21875 0-4-1.78125-4-4v-22c0-2.21875 1.78125-4 4-4zm13 4c-1.644531 0-3 1.355469-3 3s1.355469 3 3 3 3-1.355469 3-3-1.355469-3-3-3zm-7.5 1c-1.367187 0-2.5 1.132813-2.5 2.5 0 1.367188 1.132813 2.5 2.5 2.5 1.367188 0 2.5-1.132812 2.5-2.5 0-1.367187-1.132812-2.5-2.5-2.5zm7.5 1c.5625 0 1 .4375 1 1s-.4375 1-1 1-1-.4375-1-1 .4375-1 1-1zm-12.5 1c-.828125 0-1.5.671875-1.5 1.5s.671875 1.5 1.5 1.5 1.5-.671875 1.5-1.5-.671875-1.5-1.5-1.5zm5 0c.289063 0 .5.210938.5.5 0 .289063-.210937.5-.5.5-.289062 0-.5-.210937-.5-.5 0-.289062.210938-.5.5-.5zm18.34375 0c.101563 0 .15625.054688.15625.15625v3.6875c0 .101563-.054687.15625-.15625.15625h-.03125c-.011719-.015625-.015625-.007812-.03125-.03125-.132812-.214844-.34375-.761719-.34375-1.96875s.242188-1.757812.375-1.96875c.019531-.03125.015625-.011719.03125-.03125zm-14.84375 4c-2.199219 0-4 1.800781-4 4s1.800781 4 4 4 4-1.800781 4-4-1.800781-4-4-4zm-8 1c-1.644531 0-3 1.355469-3 3s1.355469 3 3 3 3-1.355469 3-3-1.355469-3-3-3zm16 0c-1.644531 0-3 1.355469-3 3s1.355469 3 3 3 3-1.355469 3-3-1.355469-3-3-3zm-8 1c1.117188 0 2 .882813 2 2 0 1.117188-.882812 2-2 2-1.117187 0-2-.882812-2-2 0-1.117187.882813-2 2-2zm-8 1c.5625 0 1 .4375 1 1s-.4375 1-1 1-1-.4375-1-1 .4375-1 1-1zm16 0c.5625 0 1 .4375 1 1s-.4375 1-1 1-1-.4375-1-1 .4375-1 1-1zm.5 5c-.828125 0-1.5.671875-1.5 1.5s.671875 1.5 1.5 1.5 1.5-.671875 1.5-1.5-.671875-1.5-1.5-1.5zm-12.5 1c-1.644531 0-3 1.355469-3 3s1.355469 3 3 3 3-1.355469 3-3-1.355469-3-3-3zm7.5 0c-1.367187 0-2.5 1.132813-2.5 2.5 0 1.367188 1.132813 2.5 2.5 2.5 1.367188 0 2.5-1.132812 2.5-2.5 0-1.367187-1.132812-2.5-2.5-2.5zm-7.5 2c.5625 0 1 .4375 1 1s-.4375 1-1 1-1-.4375-1-1 .4375-1 1-1zm7.5 0c.289063 0 .5.210938.5.5 0 .289063-.210937.5-.5.5-.289062 0-.5-.210937-.5-.5 0-.289062.210938-.5.5-.5zm-11.8125 10h16.59375c-.449219.675781-.847656 1.511719-1.03125 2.625-.144531.867188-.238281 1.15625-.3125 1.375s-.183594.496094-.25 1c-.011719.085938.011719.097656-.15625.21875s-.527344.28125-1.09375.40625c-1.128906.25-2.992187.375-5.5.375-2.503906 0-4.34375-.121094-5.4375-.375-.546875-.128906-.871094-.289062-1.03125-.40625-.160156-.117187-.144531-.140625-.15625-.21875-.070312-.535156-.167969-.835937-.25-1.09375-.082031-.257812-.167969-.535156-.3125-1.3125-.207031-1.105469-.613281-1.921875-1.0625-2.59375z"/></svg>

<svg xmlns="http://www.w3.org/2000/svg" viewBox="0 0 50 50" width="50" height="50" fill="#666"><path d="M 25.0625 0 C 22.5 0 20.589844 0.0898438 19.15625 0.40625 C 18.4375 0.566406 17.824219 0.792969 17.3125 1.15625 C 16.800781 1.519531 16.394531 2.082031 16.3125 2.71875 C 16.261719 3.097656 16.253906 3.085938 16.15625 3.375 C 16.058594 3.664063 15.9375 4.128906 15.78125 5.0625 C 15.324219 7.824219 13.929688 7.667969 12.65625 9.03125 C 12.609375 9.082031 12.546875 9.101563 12.5 9.15625 C 10.996094 10.25 10 12.007813 10 14 L 10 36 C 10 37.992188 10.996094 39.75 12.5 40.84375 C 12.511719 40.855469 12.519531 40.863281 12.53125 40.875 C 12.574219 40.90625 12.613281 40.941406 12.65625 40.96875 C 13.90625 42.3125 15.261719 42.203125 15.78125 44.96875 C 15.9375 45.808594 16.070313 46.230469 16.15625 46.5 C 16.242188 46.769531 16.253906 46.839844 16.3125 47.28125 C 16.390625 47.898438 16.785156 48.449219 17.28125 48.8125 C 17.777344 49.175781 18.359375 49.398438 19.0625 49.5625 C 20.46875 49.890625 22.371094 50 24.9375 50 C 27.5 50 29.410156 49.910156 30.84375 49.59375 C 31.5625 49.433594 32.175781 49.207031 32.6875 48.84375 C 33.199219 48.480469 33.605469 47.917969 33.6875 47.28125 C 33.738281 46.902344 33.746094 46.914063 33.84375 46.625 C 33.941406 46.335938 34.0625 45.871094 34.21875 44.9375 C 34.675781 42.175781 36.070313 42.332031 37.34375 40.96875 C 37.386719 40.941406 37.425781 40.90625 37.46875 40.875 C 37.480469 40.863281 37.488281 40.855469 37.5 40.84375 C 39.003906 39.75 40 37.992188 40 36 L 40 34 C 40.550781 34 41 33.550781 41 33 L 41 27 C 41 26.449219 40.550781 26 40 26 L 40 23 C 41.113281 22.917969 42 21.976563 42 20.84375 L 42 17.15625 C 42 16.023438 41.113281 15.082031 40 15 L 40 14 C 40 12.007813 39.003906 10.25 37.5 9.15625 C 37.488281 9.144531 37.480469 9.136719 37.46875 9.125 C 37.425781 9.09375 37.386719 9.058594 37.34375 9.03125 C 36.09375 7.6875 34.738281 7.796875 34.21875 5.03125 C 34.0625 4.191406 33.929688 3.769531 33.84375 3.5 C 33.757813 3.230469 33.746094 3.160156 33.6875 2.71875 C 33.609375 2.101563 33.214844 1.550781 32.71875 1.1875 C 32.222656 0.824219 31.640625 0.601563 30.9375 0.4375 C 29.53125 0.109375 27.628906 0 25.0625 0 Z M 25.0625 2 C 27.566406 2 29.40625 2.121094 30.5 2.375 C 31.046875 2.503906 31.371094 2.664063 31.53125 2.78125 C 31.691406 2.898438 31.675781 2.921875 31.6875 3 C 31.757813 3.535156 31.855469 3.835938 31.9375 4.09375 C 32.019531 4.351563 32.105469 4.628906 32.25 5.40625 C 32.457031 6.511719 32.863281 7.328125 33.3125 8 L 16.71875 8 C 17.167969 7.324219 17.566406 6.488281 17.75 5.375 C 17.894531 4.507813 17.988281 4.21875 18.0625 4 C 18.136719 3.78125 18.246094 3.503906 18.3125 3 C 18.324219 2.914063 18.300781 2.902344 18.46875 2.78125 C 18.636719 2.660156 18.996094 2.5 19.5625 2.375 C 20.691406 2.125 22.554688 2 25.0625 2 Z M 16 10 L 34 10 C 36.21875 10 38 11.78125 38 14 L 38 16.15625 C 37.667969 16.773438 37.4375 17.664063 37.4375 19 C 37.4375 20.332031 37.671875 21.222656 38 21.84375 L 38 36 C 38 38.21875 36.21875 40 34 40 L 16 40 C 13.78125 40 12 38.21875 12 36 L 12 14 C 12 11.78125 13.78125 10 16 10 Z M 29 14 C 27.355469 14 26 15.355469 26 17 C 26 18.644531 27.355469 20 29 20 C 30.644531 20 32 18.644531 32 17 C 32 15.355469 30.644531 14 29 14 Z M 21.5 15 C 20.132813 15 19 16.132813 19 17.5 C 19 18.867188 20.132813 20 21.5 20 C 22.867188 20 24 18.867188 24 17.5 C 24 16.132813 22.867188 15 21.5 15 Z M 29 16 C 29.5625 16 30 16.4375 30 17 C 30 17.5625 29.5625 18 29 18 C 28.4375 18 28 17.5625 28 17 C 28 16.4375 28.4375 16 29 16 Z M 16.5 17 C 15.671875 17 15 17.671875 15 18.5 C 15 19.328125 15.671875 20 16.5 20 C 17.328125 20 18 19.328125 18 18.5 C 18 17.671875 17.328125 17 16.5 17 Z M 21.5 17 C 21.789063 17 22 17.210938 22 17.5 C 22 17.789063 21.789063 18 21.5 18 C 21.210938 18 21 17.789063 21 17.5 C 21 17.210938 21.210938 17 21.5 17 Z M 39.84375 17 C 39.945313 17 40 17.054688 40 17.15625 L 40 20.84375 C 40 20.945313 39.945313 21 39.84375 21 L 39.8125 21 C 39.800781 20.984375 39.796875 20.992188 39.78125 20.96875 C 39.648438 20.753906 39.4375 20.207031 39.4375 19 C 39.4375 17.792969 39.679688 17.242188 39.8125 17.03125 C 39.832031 17 39.828125 17.019531 39.84375 17 Z M 25 21 C 22.800781 21 21 22.800781 21 25 C 21 27.199219 22.800781 29 25 29 C 27.199219 29 29 27.199219 29 25 C 29 22.800781 27.199219 21 25 21 Z M 17 22 C 15.355469 22 14 23.355469 14 25 C 14 26.644531 15.355469 28 17 28 C 18.644531 28 20 26.644531 20 25 C 20 23.355469 18.644531 22 17 22 Z M 33 22 C 31.355469 22 30 23.355469 30 25 C 30 26.644531 31.355469 28 33 28 C 34.644531 28 36 26.644531 36 25 C 36 23.355469 34.644531 22 33 22 Z M 25 23 C 26.117188 23 27 23.882813 27 25 C 27 26.117188 26.117188 27 25 27 C 23.882813 27 23 26.117188 23 25 C 23 23.882813 23.882813 23 25 23 Z M 17 24 C 17.5625 24 18 24.4375 18 25 C 18 25.5625 17.5625 26 17 26 C 16.4375 26 16 25.5625 16 25 C 16 24.4375 16.4375 24 17 24 Z M 33 24 C 33.5625 24 34 24.4375 34 25 C 34 25.5625 33.5625 26 33 26 C 32.4375 26 32 25.5625 32 25 C 32 24.4375 32.4375 24 33 24 Z M 33.5 29 C 32.671875 29 32 29.671875 32 30.5 C 32 31.328125 32.671875 32 33.5 32 C 34.328125 32 35 31.328125 35 30.5 C 35 29.671875 34.328125 29 33.5 29 Z M 21 30 C 19.355469 30 18 31.355469 18 33 C 18 34.644531 19.355469 36 21 36 C 22.644531 36 24 34.644531 24 33 C 24 31.355469 22.644531 30 21 30 Z M 28.5 30 C 27.132813 30 26 31.132813 26 32.5 C 26 33.867188 27.132813 35 28.5 35 C 29.867188 35 31 33.867188 31 32.5 C 31 31.132813 29.867188 30 28.5 30 Z M 21 32 C 21.5625 32 22 32.4375 22 33 C 22 33.5625 21.5625 34 21 34 C 20.4375 34 20 33.5625 20 33 C 20 32.4375 20.4375 32 21 32 Z M 28.5 32 C 28.789063 32 29 32.210938 29 32.5 C 29 32.789063 28.789063 33 28.5 33 C 28.210938 33 28 32.789063 28 32.5 C 28 32.210938 28.210938 32 28.5 32 Z M 16.6875 42 L 33.28125 42 C 32.832031 42.675781 32.433594 43.511719 32.25 44.625 C 32.105469 45.492188 32.011719 45.78125 31.9375 46 C 31.863281 46.21875 31.753906 46.496094 31.6875 47 C 31.675781 47.085938 31.699219 47.097656 31.53125 47.21875 C 31.363281 47.339844 31.003906 47.5 30.4375 47.625 C 29.308594 47.875 27.445313 48 24.9375 48 C 22.433594 48 20.59375 47.878906 19.5 47.625 C 18.953125 47.496094 18.628906 47.335938 18.46875 47.21875 C 18.308594 47.101563 18.324219 47.078125 18.3125 47 C 18.242188 46.464844 18.144531 46.164063 18.0625 45.90625 C 17.980469 45.648438 17.894531 45.371094 17.75 44.59375 C 17.542969 43.488281 17.136719 42.671875 16.6875 42 Z"/></svg>
